; generated by Slic3r 1.3.0-dev on 2018-06-06 at 20:02:00

; external perimeters extrusion width = 0.44mm (4.09mm^3/s)
; perimeters extrusion width = 0.42mm (7.72mm^3/s)
; infill extrusion width = 0.42mm (10.29mm^3/s)
; solid infill extrusion width = 0.42mm (2.57mm^3/s)
; top infill extrusion width = 0.42mm (1.93mm^3/s)

M107
M190 S65 ; set bed temperature and wait for it to be reached
M104 S210 ; set temperature
G28 ; home all axes
G1 Z5 F5000 ; lift nozzle
M900 K55
M420 S1 ;use mesh from bed leveling
M117 Printing...

; Filament gcode

M109 S210 ; set temperature and wait for it to be reached
G21 ; set units to millimeters
G90 ; use absolute coordinates
M82 ; use absolute distances for extrusion
G92 E0
G1 E-14.43169 F1800.00000
G92 E0
G1 Z0.350 F7800.000
G1 X83.827 Y92.652 F7800.000
G1 E14.43169 F1800.00000
G1 F1800
G1 X85.000 Y92.375 E14.69520
G1 X215.000 Y92.375 E43.12767
G1 X216.381 Y92.767 E43.44157
G1 X217.348 Y93.827 E43.75547
G1 X217.625 Y95.000 E44.01898
G1 X217.625 Y203.000 E67.63980
G1 X217.558 Y203.739 E67.80207
G1 X217.427 Y204.312 E67.93062
G1 X217.280 Y204.735 E68.02857
G1 X217.021 Y205.270 E68.15856
G1 X216.786 Y205.644 E68.25510
G1 X216.420 Y206.103 E68.38363
G1 X216.103 Y206.420 E68.48158
G1 X215.644 Y206.786 E68.61012
G1 X215.264 Y207.024 E68.70807
G1 X214.735 Y207.279 E68.83651
G1 X214.312 Y207.427 E68.93461
G1 X213.740 Y207.558 E69.06294
G1 X213.000 Y207.625 E69.22543
G1 X87.000 Y207.625 E96.78305
G1 X86.261 Y207.558 E96.94532
G1 X85.688 Y207.427 E97.07387
G1 X85.265 Y207.280 E97.17182
G1 X84.729 Y207.021 E97.30200
G1 X84.356 Y206.786 E97.39834
G1 X83.897 Y206.420 E97.52688
G1 X83.580 Y206.103 E97.62483
G1 X83.214 Y205.644 E97.75338
G1 X82.976 Y205.264 E97.85133
G1 X82.720 Y204.735 E97.97989
G1 X82.573 Y204.312 E98.07784
G1 X82.442 Y203.739 E98.20639
G1 X82.375 Y203.000 E98.36867
G1 X82.375 Y95.000 E121.98949
G1 X82.767 Y93.619 E122.30339
G1 X83.783 Y92.692 E122.60417
G1 E108.17248 F1800.00000
G92 E0
G1 X93.340 Y199.723 F7800.000
G1 E14.43169 F1800.00000
G1 F1800
G1 X93.340 Y200.277 E14.55275
G1 X93.249 Y200.823 E14.67380
G1 X93.072 Y201.337 E14.79284
G1 X92.806 Y201.833 E14.91577
G1 X92.466 Y202.270 E15.03693
G1 X92.058 Y202.645 E15.15798
G1 X91.595 Y202.947 E15.27903
G1 X91.088 Y203.170 E15.40009
G1 X90.560 Y203.303 E15.51913
G1 X90.000 Y203.351 E15.64205
G1 X89.448 Y203.305 E15.76322
G1 X88.912 Y203.170 E15.88427
G1 X88.405 Y202.947 E16.00532
G1 X87.942 Y202.645 E16.12637
G1 X87.534 Y202.270 E16.24743
G1 X87.194 Y201.833 E16.36848
G1 X86.931 Y201.346 E16.48953
G1 X86.751 Y200.823 E16.61058
G1 X86.660 Y200.277 E16.73163
G1 X86.660 Y199.723 E16.85269
G1 X86.751 Y199.177 E16.97374
G1 X86.931 Y198.654 E17.09479
G1 X87.194 Y198.167 E17.21584
G1 X87.534 Y197.730 E17.33690
G1 X87.942 Y197.355 E17.45795
G1 X88.405 Y197.053 E17.57900
G1 X88.912 Y196.830 E17.70005
G1 X89.448 Y196.695 E17.82110
G1 X89.991 Y196.650 E17.94015
G1 X90.551 Y196.694 E18.06307
G1 X91.088 Y196.830 E18.18423
G1 X91.595 Y197.053 E18.30529
G1 X92.058 Y197.355 E18.42634
G1 X92.466 Y197.730 E18.54739
G1 X92.806 Y198.167 E18.66844
G1 X93.069 Y198.654 E18.78950
G1 X93.249 Y199.177 E18.91055
G1 X93.330 Y199.664 E19.01848
G1 X93.340 Y199.723 F7800.000
G1 E4.58679 F1800.00000
G92 E0
G1 X88.627 Y203.727 F7800.000
G1 E14.43169 F1800.00000
G1 F1800
G1 X88.565 Y204.025 E14.49828
G1 X87.055 Y204.025 E14.82853
G1 X86.773 Y203.993 E14.89049
G1 X86.558 Y203.918 E14.94039
G1 X86.365 Y203.797 E14.99029
G1 X86.203 Y203.635 E15.04020
G1 X86.082 Y203.442 E15.09010
G1 X86.007 Y203.227 E15.14000
G1 X85.975 Y202.945 E15.20196
G1 X85.975 Y201.450 E15.52897
G1 X86.288 Y201.398 E15.59842
G1 X86.357 Y201.598 E15.64472
G1 X86.670 Y202.176 E15.78842
G1 X87.073 Y202.694 E15.93213
G1 X87.557 Y203.139 E16.07583
G1 X88.107 Y203.499 E16.21953
G1 X88.572 Y203.703 E16.33075
G1 E1.89906 F1800.00000
G92 E0
G1 X91.373 Y203.727 F7800.000
G1 E14.43169 F1800.00000
G1 F1800
G1 X91.893 Y203.499 E14.55603
G1 X92.443 Y203.139 E14.69974
G1 X92.927 Y202.694 E14.84344
G1 X93.331 Y202.175 E14.98744
G1 X93.646 Y201.589 E15.13302
G1 X93.712 Y201.398 E15.17712
G1 X94.025 Y201.450 E15.24657
G1 X94.025 Y202.945 E15.57358
G1 X93.993 Y203.227 E15.63553
G1 X93.919 Y203.440 E15.68502
G1 X93.792 Y203.639 E15.73660
G1 X93.635 Y203.797 E15.78520
G1 X93.442 Y203.918 E15.83511
G1 X93.227 Y203.993 E15.88501
G1 X92.945 Y204.025 E15.94696
G1 X91.435 Y204.025 E16.27721
G1 X91.385 Y203.786 E16.33068
G1 E1.89899 F1800.00000
G92 E0
G1 X92.150 Y194.521 F7800.000
G1 E14.43169 F1800.00000
G1 F1800
G1 X90.960 Y194.220 E14.70017
G1 X89.987 Y194.142 E14.91369
G1 X89.036 Y194.221 E15.12256
G1 X87.850 Y194.521 E15.39014
G1 X87.850 Y97.850 E36.53326
G1 X92.150 Y97.850 E37.47391
G1 X92.150 Y148.160 E48.47738
G1 X92.254 Y149.083 E48.68055
G1 X92.614 Y150.112 E48.91895
G1 X93.194 Y151.035 E49.15734
G1 X93.965 Y151.806 E49.39574
G1 X94.888 Y152.386 E49.63413
G1 X95.917 Y152.746 E49.87252
G1 X96.840 Y152.850 E50.07569
G1 X203.160 Y152.850 E73.32909
G1 X204.083 Y152.746 E73.53227
G1 X205.117 Y152.384 E73.77186
G1 X206.044 Y151.796 E74.01193
G1 X206.806 Y151.035 E74.24740
G1 X207.386 Y150.112 E74.48579
G1 X207.746 Y149.083 E74.72419
G1 X207.850 Y148.160 E74.92736
G1 X207.850 Y97.850 E85.93083
G1 X212.150 Y97.850 E86.87148
G1 X212.150 Y194.521 E108.01460
G1 X210.960 Y194.220 E108.28308
G1 X209.987 Y194.142 E108.49660
G1 X209.036 Y194.221 E108.70547
G1 X207.850 Y194.521 E108.97305
G1 X207.850 Y171.840 E113.93364
G1 X207.746 Y170.917 E114.13681
G1 X207.386 Y169.888 E114.37521
G1 X206.806 Y168.965 E114.61361
G1 X206.035 Y168.194 E114.85198
G1 X205.112 Y167.614 E115.09038
G1 X204.083 Y167.254 E115.32878
G1 X203.160 Y167.150 E115.53195
G1 X96.840 Y167.150 E138.78534
G1 X95.917 Y167.254 E138.98851
G1 X94.888 Y167.614 E139.22691
G1 X93.965 Y168.194 E139.46531
G1 X93.194 Y168.965 E139.70370
G1 X92.614 Y169.888 E139.94209
G1 X92.254 Y170.917 E140.18048
G1 X92.150 Y171.840 E140.38366
G1 X92.150 Y194.461 E145.33112
G1 E130.89943 F1800.00000
G92 E0
G1 X92.775 Y195.585 F7800.000
G1 E14.43169 F1800.00000
G1 F1800
G1 X92.490 Y195.398 E14.50616
G1 X91.699 Y195.051 E14.69516
G1 X90.858 Y194.838 E14.88485
G1 X89.988 Y194.769 E15.07573
G1 X89.139 Y194.839 E15.26214
G1 X88.301 Y195.051 E15.45114
G1 X87.510 Y195.398 E15.64014
G1 X87.225 Y195.585 E15.71461
G1 X87.225 Y97.225 E37.22702
G1 X92.775 Y97.225 E38.44102
G1 X92.775 Y148.125 E49.57348
G1 X92.868 Y148.943 E49.75357
G1 X93.181 Y149.839 E49.96117
G1 X93.686 Y150.643 E50.16877
G1 X94.357 Y151.314 E50.37636
G1 X95.161 Y151.819 E50.58396
G1 X96.057 Y152.132 E50.79155
G1 X96.875 Y152.225 E50.97165
G1 X203.125 Y152.225 E74.20970
G1 X203.943 Y152.132 E74.38980
G1 X204.843 Y151.818 E74.59833
G1 X205.651 Y151.305 E74.80760
G1 X206.314 Y150.643 E75.01254
G1 X206.819 Y149.839 E75.22013
G1 X207.132 Y148.943 E75.42774
G1 X207.225 Y148.125 E75.60783
G1 X207.225 Y97.225 E86.74029
G1 X212.775 Y97.225 E87.95429
G1 X212.775 Y195.585 E109.46670
G1 X212.490 Y195.398 E109.54117
G1 X211.699 Y195.051 E109.73017
G1 X210.858 Y194.838 E109.91987
G1 X209.988 Y194.769 E110.11074
G1 X209.139 Y194.839 E110.29715
G1 X208.301 Y195.051 E110.48615
G1 X207.510 Y195.398 E110.67515
G1 X207.225 Y195.585 E110.74962
G1 X207.225 Y171.875 E115.93515
G1 X207.132 Y171.057 E116.11525
G1 X206.819 Y170.161 E116.32285
G1 X206.314 Y169.357 E116.53045
G1 X205.643 Y168.686 E116.73803
G1 X204.839 Y168.181 E116.94563
G1 X203.943 Y167.868 E117.15323
G1 X203.125 Y167.775 E117.33333
G1 X96.875 Y167.775 E140.57137
G1 X96.057 Y167.868 E140.75146
G1 X95.161 Y168.181 E140.95907
G1 X94.357 Y168.686 E141.16667
G1 X93.686 Y169.357 E141.37425
G1 X93.181 Y170.161 E141.58185
G1 X92.868 Y171.057 E141.78944
G1 X92.775 Y171.875 E141.96955
G1 X92.775 Y195.525 E147.14196
G1 E132.71027 F1800.00000
G92 E0
G1 X93.400 Y196.892 F7800.000
G1 E14.43169 F1800.00000
G1 F1800
G1 X92.829 Y196.366 E14.60162
G1 X92.192 Y195.950 E14.76797
G1 X91.495 Y195.644 E14.93432
G1 X90.756 Y195.457 E15.10117
G1 X89.989 Y195.396 E15.26939
G1 X89.242 Y195.458 E15.43335
G1 X88.505 Y195.644 E15.59970
G1 X87.808 Y195.950 E15.76605
G1 X87.171 Y196.366 E15.93240
G1 X86.600 Y196.892 E16.10233
G1 X86.600 Y96.600 E38.03737
G1 X93.400 Y96.600 E39.52470
G1 X93.400 Y148.090 E50.78616
G1 X93.481 Y148.803 E50.94318
G1 X93.748 Y149.566 E51.11998
G1 X94.178 Y150.251 E51.29678
G1 X94.749 Y150.822 E51.47358
G1 X95.434 Y151.252 E51.65037
G1 X96.197 Y151.519 E51.82717
G1 X96.910 Y151.600 E51.98419
G1 X203.090 Y151.600 E75.20689
G1 X203.803 Y151.519 E75.36391
G1 X204.569 Y151.251 E75.54139
G1 X205.258 Y150.815 E75.71986
G1 X205.822 Y150.251 E75.89426
G1 X206.252 Y149.566 E76.07106
G1 X206.519 Y148.803 E76.24786
G1 X206.600 Y148.090 E76.40488
G1 X206.600 Y96.600 E87.66634
G1 X213.400 Y96.600 E89.15367
G1 X213.400 Y196.892 E111.08872
G1 X212.829 Y196.366 E111.25864
G1 X212.192 Y195.950 E111.42500
G1 X211.495 Y195.644 E111.59135
G1 X210.756 Y195.457 E111.75819
G1 X209.989 Y195.396 E111.92642
G1 X209.242 Y195.458 E112.09037
G1 X208.505 Y195.644 E112.25672
G1 X207.808 Y195.950 E112.42307
G1 X207.171 Y196.366 E112.58943
G1 X206.600 Y196.892 E112.75935
G1 X206.600 Y171.910 E118.22317
G1 X206.519 Y171.197 E118.38019
G1 X206.252 Y170.434 E118.55699
G1 X205.822 Y169.749 E118.73379
G1 X205.251 Y169.178 E118.91058
G1 X204.566 Y168.748 E119.08738
G1 X203.803 Y168.481 E119.26418
G1 X203.090 Y168.400 E119.42120
G1 X96.910 Y168.400 E142.64389
G1 X96.197 Y168.481 E142.80092
G1 X95.434 Y168.748 E142.97772
G1 X94.749 Y169.178 E143.15452
G1 X94.178 Y169.749 E143.33131
G1 X93.748 Y170.434 E143.50811
G1 X93.481 Y171.197 E143.68491
G1 X93.400 Y171.910 E143.84193
G1 X93.400 Y196.832 E149.29262
G1 E134.86093 F1800.00000
G92 E0
G1 X93.712 Y198.602 F7800.000
G1 E14.43169 F1800.00000
G1 F1800
G1 X93.643 Y198.402 E14.47799
G1 X93.330 Y197.824 E14.62169
G1 X92.927 Y197.306 E14.76539
G1 X92.443 Y196.861 E14.90910
G1 X91.893 Y196.501 E15.05280
G1 X91.292 Y196.237 E15.19650
G1 X90.653 Y196.076 E15.34051
G1 X89.990 Y196.023 E15.48608
G1 X89.345 Y196.076 E15.62758
G1 X88.708 Y196.237 E15.77128
G1 X88.107 Y196.501 E15.91498
G1 X87.557 Y196.861 E16.05868
G1 X87.073 Y197.306 E16.20239
G1 X86.670 Y197.824 E16.34609
G1 X86.357 Y198.402 E16.48979
G1 X86.288 Y198.602 E16.53609
G1 X85.975 Y198.550 E16.60554
G1 X85.975 Y95.975 E39.03986
G1 X94.025 Y95.975 E40.80053
G1 X94.025 Y148.055 E52.19098
G1 X94.094 Y148.663 E52.32493
G1 X94.314 Y149.293 E52.47093
G1 X94.669 Y149.859 E52.61693
G1 X95.141 Y150.331 E52.76293
G1 X95.707 Y150.686 E52.90893
G1 X96.337 Y150.906 E53.05493
G1 X96.945 Y150.975 E53.18888
G1 X203.055 Y150.975 E76.39622
G1 X203.663 Y150.906 E76.53017
G1 X204.295 Y150.685 E76.67659
G1 X204.866 Y150.324 E76.82426
G1 X205.331 Y149.859 E76.96813
G1 X205.686 Y149.293 E77.11413
G1 X205.906 Y148.663 E77.26013
G1 X205.975 Y148.055 E77.39408
G1 X205.975 Y95.975 E88.78453
G1 X214.025 Y95.975 E90.54520
G1 X214.025 Y198.550 E112.97952
G1 X213.712 Y198.602 E113.04897
G1 X213.643 Y198.402 E113.09527
G1 X213.330 Y197.824 E113.23898
G1 X212.927 Y197.306 E113.38268
G1 X212.443 Y196.861 E113.52638
G1 X211.893 Y196.501 E113.67008
G1 X211.292 Y196.237 E113.81378
G1 X210.653 Y196.076 E113.95779
G1 X209.990 Y196.023 E114.10336
G1 X209.345 Y196.076 E114.24486
G1 X208.708 Y196.237 E114.38856
G1 X208.107 Y196.501 E114.53226
G1 X207.557 Y196.861 E114.67597
G1 X207.073 Y197.306 E114.81967
G1 X206.669 Y197.825 E114.96367
G1 X206.354 Y198.411 E115.10925
G1 X206.288 Y198.602 E115.15335
G1 X205.975 Y198.550 E115.22280
G1 X205.975 Y171.945 E121.04154
G1 X205.906 Y171.337 E121.17549
G1 X205.686 Y170.707 E121.32149
G1 X205.331 Y170.141 E121.46749
G1 X204.859 Y169.669 E121.61348
G1 X204.293 Y169.314 E121.75948
G1 X203.663 Y169.094 E121.90548
G1 X203.055 Y169.025 E122.03943
G1 X96.945 Y169.025 E145.24678
G1 X96.337 Y169.094 E145.38073
G1 X95.707 Y169.314 E145.52673
G1 X95.141 Y169.669 E145.67273
G1 X94.669 Y170.141 E145.81872
G1 X94.314 Y170.707 E145.96472
G1 X94.094 Y171.337 E146.11072
G1 X94.025 Y171.945 E146.24467
G1 X94.025 Y198.550 E152.06341
G1 X93.771 Y198.592 E152.11974
G1 E137.68805 F1800.00000
G92 E0
G1 X205.975 Y201.450 F7800.000
G1 E14.43169 F1800.00000
G1 F1800
G1 X206.288 Y201.398 E14.50114
G1 X206.357 Y201.598 E14.54744
G1 X206.670 Y202.176 E14.69115
G1 X207.073 Y202.694 E14.83485
G1 X207.557 Y203.139 E14.97855
G1 X208.107 Y203.499 E15.12225
G1 X208.627 Y203.727 E15.24659
G1 X208.565 Y204.025 E15.31319
G1 X207.055 Y204.025 E15.64344
G1 X206.773 Y203.993 E15.70539
G1 X206.558 Y203.918 E15.75529
G1 X206.365 Y203.797 E15.80520
G1 X206.203 Y203.635 E15.85510
G1 X206.082 Y203.442 E15.90501
G1 X206.007 Y203.227 E15.95491
G1 X205.975 Y202.945 E16.01686
G1 X205.975 Y201.510 E16.33075
G1 X206.862 Y201.145 F7800.000
G1 F1800
G1 X206.751 Y200.823 E16.40540
G1 X206.660 Y200.277 E16.52645
G1 X206.660 Y199.723 E16.64750
G1 X206.751 Y199.177 E16.76855
G1 X206.928 Y198.663 E16.88760
G1 X207.194 Y198.167 E17.01053
G1 X207.534 Y197.730 E17.13169
G1 X207.942 Y197.355 E17.25274
G1 X208.405 Y197.053 E17.37379
G1 X208.912 Y196.830 E17.49484
G1 X209.448 Y196.695 E17.61589
G1 X209.991 Y196.650 E17.73494
G1 X210.551 Y196.694 E17.85786
G1 X211.088 Y196.830 E17.97902
G1 X211.595 Y197.053 E18.10008
G1 X212.058 Y197.355 E18.22113
G1 X212.466 Y197.730 E18.34218
G1 X212.806 Y198.167 E18.46323
G1 X213.069 Y198.654 E18.58429
G1 X213.249 Y199.177 E18.70534
G1 X213.340 Y199.723 E18.82639
G1 X213.340 Y200.277 E18.94744
G1 X213.249 Y200.823 E19.06849
G1 X213.072 Y201.337 E19.18754
G1 X212.806 Y201.833 E19.31047
G1 X212.466 Y202.270 E19.43163
G1 X212.058 Y202.645 E19.55268
G1 X211.595 Y202.947 E19.67373
G1 X211.088 Y203.170 E19.79478
G1 X210.560 Y203.303 E19.91383
G1 X210.000 Y203.351 E20.03675
G1 X209.448 Y203.305 E20.15791
G1 X208.912 Y203.170 E20.27897
G1 X208.405 Y202.947 E20.40002
G1 X207.942 Y202.645 E20.52107
G1 X207.534 Y202.270 E20.64212
G1 X207.194 Y201.833 E20.76317
G1 X206.931 Y201.346 E20.88423
G1 X206.882 Y201.202 E20.91751
G1 X206.525 Y201.093 F7800.000
G1 E6.48582 F1800.00000
G92 E0
G1 X211.373 Y203.727 F7800.000
G1 E14.43169 F1800.00000
G1 F1800
G1 X211.893 Y203.499 E14.55603
G1 X212.443 Y203.139 E14.69974
G1 X212.927 Y202.694 E14.84344
G1 X213.331 Y202.175 E14.98744
G1 X213.646 Y201.589 E15.13302
G1 X213.712 Y201.398 E15.17712
G1 X214.025 Y201.450 E15.24657
G1 X214.025 Y202.945 E15.57358
G1 X213.993 Y203.227 E15.63554
G1 X213.918 Y203.442 E15.68544
G1 X213.797 Y203.635 E15.73534
G1 X213.635 Y203.797 E15.78525
G1 X213.442 Y203.918 E15.83515
G1 X213.227 Y203.993 E15.88505
G1 X212.945 Y204.025 E15.94701
G1 X211.435 Y204.025 E16.27726
G1 X211.385 Y203.786 E16.33073
G1 E1.89904 F1800.00000
G92 E0
G1 X214.650 Y95.350 F7800.000
G1 E14.43169 F1800.00000
G1 F1800
G1 X214.650 Y202.980 E37.97166
G1 X214.606 Y203.367 E38.05669
G1 X214.485 Y203.715 E38.13739
G1 X214.288 Y204.027 E38.21809
G1 X214.027 Y204.288 E38.29879
G1 X213.715 Y204.485 E38.37950
G1 X213.367 Y204.606 E38.46020
G1 X212.980 Y204.650 E38.54522
G1 X207.020 Y204.650 E39.84889
G1 X206.633 Y204.606 E39.93392
G1 X206.285 Y204.485 E40.01462
G1 X205.973 Y204.288 E40.09532
G1 X205.712 Y204.027 E40.17603
G1 X205.515 Y203.715 E40.25673
G1 X205.394 Y203.367 E40.33743
G1 X205.350 Y202.980 E40.42246
G1 X205.350 Y171.980 E47.20251
G1 X205.293 Y171.477 E47.31338
G1 X205.119 Y170.979 E47.42858
G1 X204.839 Y170.533 E47.54379
G1 X204.467 Y170.161 E47.65898
G1 X204.021 Y169.881 E47.77419
G1 X203.523 Y169.707 E47.88939
G1 X203.020 Y169.650 E48.00026
G1 X96.980 Y169.650 E71.19226
G1 X96.477 Y169.707 E71.30313
G1 X95.979 Y169.881 E71.41833
G1 X95.533 Y170.161 E71.53354
G1 X95.161 Y170.533 E71.64874
G1 X94.881 Y170.979 E71.76394
G1 X94.707 Y171.477 E71.87914
G1 X94.650 Y171.980 E71.99001
G1 X94.650 Y202.980 E78.77006
G1 X94.606 Y203.367 E78.85509
G1 X94.485 Y203.714 E78.93565
G1 X94.283 Y204.032 E79.01802
G1 X94.027 Y204.288 E79.09715
G1 X93.715 Y204.485 E79.17786
G1 X93.367 Y204.606 E79.25856
G1 X92.980 Y204.650 E79.34359
G1 X87.020 Y204.650 E80.64726
G1 X86.633 Y204.606 E80.73228
G1 X86.285 Y204.485 E80.81298
G1 X85.973 Y204.288 E80.89369
G1 X85.712 Y204.027 E80.97439
G1 X85.515 Y203.715 E81.05509
