; generated by Slic3r 1.3.0-dev on 2018-05-08 at 13:43:08

; external perimeters extrusion width = 0.44mm (4.09mm^3/s)
; perimeters extrusion width = 0.42mm (7.72mm^3/s)
; infill extrusion width = 0.42mm (10.29mm^3/s)
; solid infill extrusion width = 0.42mm (2.57mm^3/s)
; top infill extrusion width = 0.42mm (1.93mm^3/s)

M107
M190 S65 ; set bed temperature and wait for it to be reached
M104 S210 ; set temperature
G28 ; home all axes
G1 Z5 F5000 ; lift nozzle
M900 K55
M420 S1 ;use mesh from bed leveling
M117 Printing...

; Filament gcode

M109 S210 ; set temperature and wait for it to be reached
G21 ; set units to millimeters
G90 ; use absolute coordinates
M82 ; use absolute distances for extrusion
G92 E0
G1 E-14.43169 F1800.00000
G92 E0
G1 Z0.350 F7800.000
G1 X5.150 Y5.491 F7800.000
G1 E14.43169 F1800.00000
G1 F1800
G1 X5.491 Y5.150 E14.53734
G1 X6.109 Y4.642 E14.71224
G1 X6.783 Y4.212 E14.88713
G1 X7.504 Y3.866 E15.06201
G1 X8.070 Y3.670 E15.19290
G1 X8.570 Y3.534 E15.30620
G1 X9.359 Y3.409 E15.48110
G1 X10.000 Y3.375 E15.62140
G1 X290.000 Y3.375 E76.86056
G1 X290.641 Y3.409 E77.00087
G1 X291.430 Y3.534 E77.17576
G1 X291.738 Y3.610 E77.24510
G1 X292.496 Y3.866 E77.42000
G1 X293.217 Y4.212 E77.59485
G1 X293.630 Y4.462 E77.70054
G1 X294.271 Y4.940 E77.87540
G1 X294.509 Y5.150 E77.94475
G1 X295.060 Y5.729 E78.11964
G1 X295.538 Y6.370 E78.29453
G1 X295.935 Y7.064 E78.46940
G1 X296.134 Y7.504 E78.57507
G1 X296.246 Y7.801 E78.64441
G1 X296.466 Y8.570 E78.81927
G1 X296.591 Y9.359 E78.99415
G1 X296.625 Y10.000 E79.13448
G1 X296.625 Y290.000 E140.37364
G1 X296.591 Y290.641 E140.51397
G1 X296.466 Y291.431 E140.68886
G1 X296.246 Y292.199 E140.86372
G1 X296.134 Y292.496 E140.93307
G1 X295.788 Y293.217 E141.10791
G1 X295.538 Y293.630 E141.21363
G1 X295.185 Y294.113 E141.34444
G1 X294.850 Y294.509 E141.45778
G1 X294.509 Y294.850 E141.56342
G1 X293.891 Y295.358 E141.73834
G1 X293.217 Y295.788 E141.91322
G1 X292.496 Y296.134 E142.08811
G1 X292.199 Y296.246 E142.15745
G1 X291.430 Y296.466 E142.33232
G1 X290.641 Y296.591 E142.50719
G1 X290.000 Y296.625 E142.64753
G1 X10.000 Y296.625 E203.88668
G1 X9.359 Y296.591 E204.02701
G1 X8.569 Y296.466 E204.20191
G1 X7.801 Y296.246 E204.37676
G1 X7.504 Y296.134 E204.44611
G1 X6.783 Y295.788 E204.62098
G1 X6.370 Y295.538 E204.72665
G1 X5.887 Y295.184 E204.85751
G1 X5.491 Y294.850 E204.97081
G1 X4.940 Y294.271 E205.14574
G1 X4.642 Y293.891 E205.25139
G1 X4.212 Y293.217 E205.42626
G1 X3.866 Y292.496 E205.60113
G1 X3.670 Y291.930 E205.73204
G1 X3.534 Y291.430 E205.84533
G1 X3.409 Y290.641 E206.02023
G1 X3.375 Y290.000 E206.16054
G1 X3.375 Y10.000 E267.39969
G1 X3.409 Y9.359 E267.54000
G1 X3.534 Y8.570 E267.71490
G1 X3.694 Y7.993 E267.84579
G1 X3.866 Y7.504 E267.95909
G1 X4.065 Y7.064 E268.06474
G1 X4.462 Y6.370 E268.23962
G1 X4.642 Y6.109 E268.30894
G1 X5.110 Y5.536 E268.47073
G1 E254.03904 F1800.00000
G92 E0
G1 X80.062 Y289.485 F7800.000
G1 E14.43169 F1800.00000
G1 F1800
G1 X80.241 Y289.540 E14.47265
G1 X80.389 Y289.656 E14.51358
G1 X80.460 Y289.759 E14.54097
G1 X80.504 Y289.876 E14.56833
G1 X80.515 Y290.063 E14.60928
G1 X80.460 Y290.241 E14.65022
G1 X80.344 Y290.389 E14.69114
G1 X80.184 Y290.485 E14.73206
G1 X80.062 Y290.515 E14.75948
G1 X79.938 Y290.515 E14.78682
G1 X79.759 Y290.460 E14.82778
G1 X79.611 Y290.344 E14.86871
G1 X79.540 Y290.241 E14.89610
G1 X79.496 Y290.124 E14.92346
G1 X79.485 Y289.937 E14.96440
G1 X79.540 Y289.759 E15.00534
G1 X79.656 Y289.611 E15.04627
G1 X79.816 Y289.515 E15.08720
G1 X80.003 Y289.481 E15.12871
G1 X80.100 Y288.861 F7800.000
G1 F1800
G1 X80.274 Y288.888 E15.16720
G1 X80.532 Y288.986 E15.22757
G1 X80.737 Y289.125 E15.28164
G1 X80.857 Y289.241 E15.31817
G1 X81.014 Y289.468 E15.37856
G1 X81.112 Y289.726 E15.43893
G1 X81.145 Y290.000 E15.49932
G1 X81.137 Y290.138 E15.52957
G1 X81.071 Y290.406 E15.58995
G1 X81.014 Y290.532 E15.62021
G1 X80.943 Y290.651 E15.65045
G1 X80.759 Y290.857 E15.71083
G1 X80.651 Y290.943 E15.74108
G1 X80.406 Y291.071 E15.80143
G1 X80.138 Y291.137 E15.86186
G1 X79.862 Y291.137 E15.92221
G1 X79.726 Y291.112 E15.95249
G1 X79.468 Y291.014 E16.01286
G1 X79.263 Y290.875 E16.06693
G1 X79.143 Y290.759 E16.10346
G1 X78.986 Y290.532 E16.16385
G1 X78.888 Y290.274 E16.22422
G1 X78.855 Y290.000 E16.28461
G1 X78.863 Y289.862 E16.31486
G1 X78.888 Y289.726 E16.34511
G1 X78.986 Y289.468 E16.40548
G1 X79.058 Y289.349 E16.43574
G1 X79.241 Y289.143 E16.49611
G1 X79.349 Y289.057 E16.52636
G1 X79.594 Y288.929 E16.58673
G1 X79.862 Y288.863 E16.64714
G1 X80.040 Y288.857 E16.68617
G1 X80.138 Y288.237 F7800.000
G1 F1800
G1 X80.424 Y288.280 E16.74941
G1 X80.628 Y288.344 E16.79619
G1 X80.823 Y288.432 E16.84297
G1 X81.122 Y288.633 E16.92179
G1 X81.326 Y288.825 E16.98308
G1 X81.458 Y288.994 E17.02986
G1 X81.568 Y289.177 E17.07665
G1 X81.656 Y289.372 E17.12343
G1 X81.720 Y289.576 E17.17020
G1 X81.758 Y289.786 E17.21699
G1 X81.771 Y290.000 E17.26377
G1 X81.758 Y290.214 E17.31055
G1 X81.720 Y290.424 E17.35734
G1 X81.656 Y290.628 E17.40411
G1 X81.568 Y290.823 E17.45090
G1 X81.458 Y291.006 E17.49767
G1 X81.326 Y291.175 E17.54446
G1 X81.175 Y291.326 E17.59123
G1 X81.006 Y291.458 E17.63802
G1 X80.823 Y291.568 E17.68480
G1 X80.628 Y291.656 E17.73156
G1 X80.424 Y291.720 E17.77835
G1 X80.213 Y291.758 E17.82515
G1 X80.000 Y291.771 E17.87192
G1 X79.787 Y291.758 E17.91869
G1 X79.435 Y291.676 E17.99756
G1 X79.177 Y291.568 E18.05883
G1 X78.878 Y291.367 E18.13765
G1 X78.674 Y291.175 E18.19894
G1 X78.542 Y291.006 E18.24572
G1 X78.432 Y290.823 E18.29251
G1 X78.344 Y290.628 E18.33929
G1 X78.280 Y290.424 E18.38606
G1 X78.242 Y290.214 E18.43285
G1 X78.229 Y290.000 E18.47963
G1 X78.242 Y289.786 E18.52641
G1 X78.280 Y289.576 E18.57320
G1 X78.344 Y289.372 E18.61997
G1 X78.432 Y289.177 E18.66675
G1 X78.542 Y288.994 E18.71354
G1 X78.674 Y288.825 E18.76032
G1 X78.825 Y288.674 E18.80709
G1 X78.994 Y288.542 E18.85388
G1 X79.177 Y288.432 E18.90066
G1 X79.372 Y288.344 E18.94743
G1 X79.576 Y288.280 E18.99421
G1 X79.787 Y288.242 E19.04101
G1 X80.078 Y288.233 E19.10481
G1 X80.176 Y287.613 F7800.000
G1 F1800
G1 X80.574 Y287.672 E19.19280
G1 X80.850 Y287.759 E19.25611
G1 X81.114 Y287.877 E19.31942
G1 X81.362 Y288.027 E19.38274
G1 X81.507 Y288.141 E19.42319
G1 X81.794 Y288.410 E19.50924
G1 X81.973 Y288.638 E19.57255
G1 X82.123 Y288.886 E19.63588
G1 X82.242 Y289.150 E19.69919
G1 X82.328 Y289.426 E19.76250
G1 X82.380 Y289.711 E19.82582
G1 X82.397 Y290.000 E19.88913
G1 X82.380 Y290.289 E19.95245
G1 X82.328 Y290.574 E20.01577
G1 X82.242 Y290.850 E20.07908
G1 X82.123 Y291.114 E20.14239
G1 X81.973 Y291.362 E20.20571
G1 X81.794 Y291.590 E20.26903
G1 X81.590 Y291.794 E20.33234
G1 X81.362 Y291.973 E20.39565
G1 X81.114 Y292.123 E20.45897
G1 X80.850 Y292.241 E20.52227
G1 X80.574 Y292.328 E20.58559
G1 X80.289 Y292.380 E20.64892
G1 X80.000 Y292.397 E20.71223
G1 X79.711 Y292.380 E20.77553
G1 X79.426 Y292.328 E20.83887
G1 X79.250 Y292.273 E20.87933
G1 X78.886 Y292.123 E20.96536
G1 X78.638 Y291.973 E21.02868
G1 X78.493 Y291.859 E21.06913
G1 X78.206 Y291.590 E21.15518
G1 X78.027 Y291.362 E21.21849
G1 X77.877 Y291.114 E21.28182
G1 X77.758 Y290.850 E21.34513
G1 X77.672 Y290.574 E21.40844
G1 X77.620 Y290.289 E21.47176
G1 X77.603 Y290.000 E21.53507
G1 X77.620 Y289.711 E21.59839
G1 X77.672 Y289.426 E21.66171
G1 X77.758 Y289.150 E21.72502
G1 X77.877 Y288.886 E21.78833
G1 X78.027 Y288.638 E21.85165
G1 X78.206 Y288.410 E21.91497
G1 X78.410 Y288.206 E21.97828
G1 X78.638 Y288.027 E22.04159
G1 X78.886 Y287.877 E22.10491
G1 X79.150 Y287.759 E22.16821
G1 X79.426 Y287.672 E22.23153
G1 X79.711 Y287.620 E22.29486
G1 X80.116 Y287.610 E22.38342
G1 X80.214 Y286.990 F7800.000
G1 F1800
G1 X80.364 Y286.999 E22.41648
G1 X80.724 Y287.065 E22.49634
G1 X81.072 Y287.173 E22.57619
G1 X81.405 Y287.323 E22.65603
G1 X81.717 Y287.512 E22.73589
G1 X81.893 Y287.649 E22.78461
G1 X82.263 Y287.995 E22.89541
G1 X82.488 Y288.283 E22.97526
G1 X82.677 Y288.595 E23.05512
G1 X82.827 Y288.928 E23.13496
G1 X82.935 Y289.276 E23.21481
G1 X83.001 Y289.636 E23.29466
G1 X83.023 Y290.000 E23.37451
G1 X83.001 Y290.364 E23.45436
G1 X82.935 Y290.724 E23.53421
G1 X82.827 Y291.072 E23.61406
G1 X82.677 Y291.405 E23.69391
G1 X82.562 Y291.596 E23.74264
G1 X82.263 Y292.005 E23.85344
G1 X82.005 Y292.263 E23.93329
G1 X81.717 Y292.488 E24.01314
G1 X81.405 Y292.677 E24.09299
G1 X81.202 Y292.768 E24.14171
G1 X80.724 Y292.935 E24.25252
G1 X80.364 Y293.001 E24.33238
G1 X80.000 Y293.023 E24.41222
G1 X79.636 Y293.001 E24.49206
G1 X79.276 Y292.935 E24.57192
G1 X79.064 Y292.869 E24.62065
G1 X78.595 Y292.677 E24.73145
G1 X78.283 Y292.488 E24.81130
G1 X78.107 Y292.351 E24.86002
G1 X77.737 Y292.005 E24.97083
G1 X77.512 Y291.717 E25.05068
G1 X77.323 Y291.405 E25.13054
G1 X77.173 Y291.072 E25.21038
G1 X77.065 Y290.724 E25.29023
G1 X76.999 Y290.364 E25.37008
G1 X76.977 Y290.000 E25.44993
G1 X76.999 Y289.636 E25.52978
G1 X77.065 Y289.276 E25.60963
G1 X77.173 Y288.928 E25.68947
G1 X77.323 Y288.595 E25.76932
G1 X77.512 Y288.283 E25.84918
G1 X77.737 Y287.995 E25.92903
G1 X77.995 Y287.737 E26.00887
G1 X78.283 Y287.512 E26.08872
G1 X78.595 Y287.323 E26.16857
G1 X78.928 Y287.173 E26.24841
G1 X79.276 Y287.065 E26.32826
G1 X79.636 Y286.999 E26.40812
G1 X80.000 Y286.977 E26.48796
G1 X80.154 Y286.986 E26.52163
G1 X80.251 Y286.366 F7800.000
G1 F1800
G1 X80.440 Y286.377 E26.56295
G1 X80.873 Y286.457 E26.65934
G1 X81.294 Y286.588 E26.75572
G1 X81.696 Y286.769 E26.85210
G1 X82.073 Y286.997 E26.94848
G1 X82.278 Y287.157 E27.00547
G1 X82.420 Y287.268 E27.04486
G1 X82.732 Y287.580 E27.14124
G1 X83.003 Y287.927 E27.23763
G1 X83.231 Y288.304 E27.33402
G1 X83.412 Y288.706 E27.43040
G1 X83.543 Y289.127 E27.52678
G1 X83.623 Y289.560 E27.62316
G1 X83.649 Y290.000 E27.71955
G1 X83.623 Y290.440 E27.81593
G1 X83.543 Y290.873 E27.91232
G1 X83.412 Y291.294 E28.00870
G1 X83.231 Y291.696 E28.10508
G1 X83.097 Y291.919 E28.16207
G1 X83.003 Y292.073 E28.20146
G1 X82.732 Y292.420 E28.29785
G1 X82.420 Y292.732 E28.39423
G1 X82.073 Y293.003 E28.49061
G1 X81.696 Y293.231 E28.58699
G1 X81.458 Y293.338 E28.64399
G1 X81.294 Y293.412 E28.68337
G1 X80.873 Y293.543 E28.77976
G1 X80.440 Y293.623 E28.87614
G1 X80.000 Y293.649 E28.97252
G1 X79.560 Y293.623 E29.06890
G1 X79.127 Y293.543 E29.16529
G1 X78.878 Y293.466 E29.22229
G1 X78.706 Y293.412 E29.26167
G1 X78.304 Y293.231 E29.35806
G1 X77.927 Y293.003 E29.45444
G1 X77.722 Y292.843 E29.51143
G1 X77.580 Y292.732 E29.55082
G1 X77.268 Y292.420 E29.64720
G1 X76.997 Y292.073 E29.74359
G1 X76.769 Y291.696 E29.83997
G1 X76.588 Y291.294 E29.93635
G1 X76.457 Y290.873 E30.03273
G1 X76.377 Y290.440 E30.12912
G1 X76.351 Y290.000 E30.22550
G1 X76.377 Y289.560 E30.32188
G1 X76.457 Y289.127 E30.41827
G1 X76.588 Y288.706 E30.51465
G1 X76.769 Y288.304 E30.61103
G1 X76.997 Y287.927 E30.70742
G1 X77.268 Y287.580 E30.80380
G1 X77.580 Y287.268 E30.90018
G1 X77.927 Y286.997 E30.99656
G1 X78.304 Y286.769 E31.09295
G1 X78.706 Y286.588 E31.18933
G1 X79.127 Y286.457 E31.28571
G1 X79.560 Y286.377 E31.38210
G1 X80.000 Y286.351 E31.47848
G1 X80.191 Y286.362 E31.52041
G1 X80.255 Y286.374 F7800.000
G1 E17.08872 F1800.00000
G92 E0
G1 X80.000 Y290.000 F7800.000
G1 E14.43169 F1800.00000
G1 F1800
G1 X80.000 Y290.000 E14.43171
G1 X80.000 Y290.000 F7800.000
G1 F1800
G1 X80.000 Y290.000 E14.43175
G1 E0.00006 F1800.00000
G92 E0
G1 X79.937 Y220.515 F7800.000
G1 E14.43169 F1800.00000
G1 F1800
G1 X79.759 Y220.460 E14.47263
G1 X79.656 Y220.389 E14.50000
G1 X79.573 Y220.295 E14.52736
G1 X79.496 Y220.124 E14.56831
G1 X79.485 Y219.937 E14.60925
G1 X79.540 Y219.759 E14.65018
G1 X79.611 Y219.656 E14.67757
G1 X79.705 Y219.573 E14.70494
G1 X79.876 Y219.496 E14.74589
G1 X80.063 Y219.485 E14.78682
G1 X80.184 Y219.515 E14.81418
G1 X80.295 Y219.573 E14.84158
G1 X80.427 Y219.705 E14.88250
G1 X80.504 Y219.876 E14.92344
G1 X80.515 Y220.063 E14.96438
G1 X80.460 Y220.241 E15.00531
G1 X80.344 Y220.389 E15.04626
G1 X80.184 Y220.485 E15.08721
G1 X79.997 Y220.519 E15.12871
G1 X79.900 Y221.139 F7800.000
G1 F1800
G1 X79.726 Y221.112 E15.16717
G1 X79.468 Y221.014 E15.22756
G1 X79.349 Y220.943 E15.25781
G1 X79.143 Y220.759 E15.31819
G1 X79.058 Y220.651 E15.34843
G1 X78.929 Y220.406 E15.40882
G1 X78.863 Y220.138 E15.46920
G1 X78.863 Y219.862 E15.52959
G1 X78.929 Y219.594 E15.58996
G1 X79.058 Y219.349 E15.65036
G1 X79.143 Y219.241 E15.68060
G1 X79.349 Y219.057 E15.74098
G1 X79.468 Y218.986 E15.77122
G1 X79.726 Y218.888 E15.83162
G1 X79.862 Y218.863 E15.86185
G1 X80.138 Y218.863 E15.92225
G1 X80.406 Y218.929 E15.98262
G1 X80.651 Y219.058 E16.04302
G1 X80.857 Y219.241 E16.10339
G1 X80.942 Y219.349 E16.13363
G1 X81.071 Y219.594 E16.19402
G1 X81.112 Y219.726 E16.22426
G1 X81.145 Y220.000 E16.28465
G1 X81.137 Y220.138 E16.31490
G1 X81.071 Y220.406 E16.37528
G1 X81.014 Y220.532 E16.40552
G1 X80.942 Y220.651 E16.43578
G1 X80.759 Y220.857 E16.49616
G1 X80.532 Y221.014 E16.55654
G1 X80.406 Y221.071 E16.58680
G1 X80.138 Y221.137 E16.64717
G1 X79.960 Y221.143 E16.68623
G1 X79.862 Y221.763 F7800.000
G1 F1800
G1 X79.576 Y221.720 E16.74945
G1 X79.372 Y221.656 E16.79623
G1 X79.177 Y221.568 E16.84302
G1 X78.994 Y221.458 E16.88980
G1 X78.825 Y221.326 E16.93658
G1 X78.674 Y221.175 E16.98336
G1 X78.542 Y221.006 E17.03013
G1 X78.432 Y220.823 E17.07693
G1 X78.344 Y220.628 E17.12370
G1 X78.280 Y220.424 E17.17048
G1 X78.242 Y220.213 E17.21726
G1 X78.229 Y220.000 E17.26404
G1 X78.242 Y219.786 E17.31083
G1 X78.280 Y219.576 E17.35761
G1 X78.344 Y219.372 E17.40438
G1 X78.432 Y219.177 E17.45116
G1 X78.542 Y218.994 E17.49795
G1 X78.674 Y218.825 E17.54473
G1 X78.825 Y218.674 E17.59151
G1 X78.994 Y218.542 E17.63829
G1 X79.177 Y218.432 E17.68507
G1 X79.372 Y218.344 E17.73186
G1 X79.576 Y218.280 E17.77864
G1 X79.786 Y218.242 E17.82541
G1 X80.000 Y218.229 E17.87219
G1 X80.214 Y218.242 E17.91898
G1 X80.424 Y218.280 E17.96575
G1 X80.628 Y218.344 E18.01253
G1 X80.823 Y218.432 E18.05932
G1 X81.006 Y218.542 E18.10611
G1 X81.175 Y218.674 E18.15287
G1 X81.326 Y218.825 E18.19966
G1 X81.458 Y218.994 E18.24644
G1 X81.568 Y219.177 E18.29323
G1 X81.656 Y219.372 E18.34001
G1 X81.720 Y219.576 E18.38678
G1 X81.758 Y219.786 E18.43357
G1 X81.771 Y220.000 E18.48035
G1 X81.758 Y220.213 E18.52713
G1 X81.676 Y220.564 E18.60596
G1 X81.568 Y220.823 E18.66724
G1 X81.458 Y221.006 E18.71403
G1 X81.326 Y221.175 E18.76081
G1 X81.175 Y221.326 E18.80759
G1 X81.006 Y221.458 E18.85437
G1 X80.823 Y221.568 E18.90115
G1 X80.628 Y221.656 E18.94794
G1 X80.424 Y221.720 E18.99471
G1 X80.214 Y221.758 E19.04149
G1 X79.922 Y221.767 E19.10531
G1 X79.824 Y222.387 F7800.000
G1 F1800
G1 X79.426 Y222.328 E19.19329
G1 X79.150 Y222.242 E19.25661
G1 X78.886 Y222.123 E19.31993
G1 X78.638 Y221.973 E19.38325
G1 X78.410 Y221.794 E19.44656
G1 X78.206 Y221.590 E19.50987
G1 X78.027 Y221.362 E19.57319
G1 X77.877 Y221.114 E19.63651
G1 X77.758 Y220.850 E19.69982
G1 X77.672 Y220.574 E19.76313
G1 X77.620 Y220.289 E19.82645
G1 X77.603 Y220.000 E19.88976
G1 X77.620 Y219.711 E19.95308
G1 X77.672 Y219.426 E20.01640
G1 X77.758 Y219.150 E20.07971
G1 X77.877 Y218.886 E20.14302
G1 X78.027 Y218.638 E20.20634
G1 X78.206 Y218.410 E20.26965
G1 X78.410 Y218.206 E20.33297
G1 X78.638 Y218.027 E20.39628
G1 X78.886 Y217.877 E20.45960
G1 X79.150 Y217.758 E20.52292
G1 X79.426 Y217.672 E20.58623
G1 X79.711 Y217.620 E20.64954
G1 X80.000 Y217.603 E20.71286
G1 X80.289 Y217.620 E20.77618
G1 X80.574 Y217.672 E20.83948
G1 X80.850 Y217.758 E20.90280
G1 X81.114 Y217.877 E20.96612
G1 X81.362 Y218.027 E21.02944
G1 X81.590 Y218.206 E21.09274
G1 X81.794 Y218.410 E21.15606
G1 X81.973 Y218.638 E21.21937
G1 X82.123 Y218.886 E21.28270
G1 X82.242 Y219.150 E21.34601
G1 X82.328 Y219.426 E21.40932
G1 X82.380 Y219.711 E21.47264
G1 X82.397 Y220.000 E21.53595
G1 X82.380 Y220.289 E21.59927
G1 X82.328 Y220.574 E21.66258
G1 X82.273 Y220.750 E21.70304
G1 X82.123 Y221.114 E21.78908
G1 X81.973 Y221.362 E21.85241
G1 X81.794 Y221.590 E21.91572
G1 X81.590 Y221.794 E21.97903
G1 X81.362 Y221.973 E22.04235
G1 X81.114 Y222.123 E22.10566
G1 X80.850 Y222.242 E22.16898
G1 X80.574 Y222.328 E22.23229
G1 X80.289 Y222.380 E22.29560
G1 X79.884 Y222.390 E22.38418
G1 X79.787 Y223.010 F7800.000
